src/status/16/steam_tray_mono.svg

<svg viewBox="0 0 16 16" xmlns="http://www.w3.org/2000/svg">
 <path d="m12.5 1a3.5 3.5 0 0 0-3.5 3.5 3.5 3.5 0 0 0 1 2.4453v3.1047a2.5 2.5 0 0 0-0.5-0.05 2.5 2.5 0 0 0-1.4902 0.49609l-3.0278-1.7301a2.5 2.5 0 0 0 0.018-0.266 2.5 2.5 0 0 0-2.5-2.5 2.5 2.5 0 0 0-2.5 2.5 2.5 2.5 0 0 0 2.5 2.5 2.5 2.5 0 0 0 1.4902-0.49609l3.03 1.73a2.5 2.5 0 0 0-0.020234 0.26609 2.5 2.5 0 0 0 2.5 2.5 2.5 2.5 0 0 0 2.5-2.5 2.5 2.5 0 0 0-0.33203-1.2402l1.871-3.4178a3.5 3.5 0 0 0 2.461-3.342 3.5 3.5 0 0 0-3.5-3.5zm0 1a2.5 2.5 0 0 1 2.5 2.5 2.5 2.5 0 0 1-2.5 2.5 2.5 2.5 0 0 1-2.5-2.5 2.5 2.5 0 0 1 2.5-2.5zm0 1a1.5 1.5 0 0 0-1.5 1.5 1.5 1.5 0 0 0 1.5 1.5 1.5 1.5 0 0 0 1.5-1.5 1.5 1.5 0 0 0-1.5-1.5zm-10 4a1.5 1.5 0 0 1 1.4648 1.1836l-0.96884-0.55259a1.0001 1.0001 0 0 0-0.57412-0.13686 1.0001 1.0001 0 0 0-0.41797 1.875l0.96709 0.55286a1.5 1.5 0 0 1-0.471 0.078 1.5 1.5 0 0 1-1.5-1.5 1.5 1.5 0 0 1 1.5-1.5zm6.9707 4a1.5 1.5 0 0 1 0.029297 0 1.5 1.5 0 0 1 1.5 1.5 1.5 1.5 0 0 1-1.5 1.5 1.5 1.5 0 0 1-1.4648-1.1836l0.969 0.553a1.0008 1.0008 0 1 0 0.99193-1.7385l-0.96609-0.55086a1.5 1.5 0 0 1 0.4407-0.08z" fill="#2e3440"/>
</svg>

<svg viewBox="0 0 16 16" xmlns="http://www.w3.org/2000/svg">
 <path d="M 12.5 1 A 3.5 3.5 0 0 0 9 4.5 3.5 3.5 0 0 0 10 6.945313 L 10 10.05 A 2.5 2.5 0 0 0 9.5 10 2.5 2.5 0 0 0 8.00977 10.496094 L 4.982 8.766 A 2.5 2.5 0 0 0 5 8.5 2.5 2.5 0 0 0 2.5 6 2.5 2.5 0 0 0 0 8.5 2.5 2.5 0 0 0 2.5 11 2.5 2.5 0 0 0 3.990234 10.503906 l 3.03 1.73 A 2.5 2.5 0 0 0 7 12.5 2.5 2.5 0 0 0 9.5 15 2.5 2.5 0 0 0 12 12.5 2.5 2.5 0 0 0 11.667969 11.259766 L 13.539 7.842 A 3.5 3.5 0 0 0 16 4.5 3.5 3.5 0 0 0 12.5 1 z m 0 1 A 2.5 2.5 0 0 1 15 4.5 2.5 2.5 0 0 1 12.5 7 2.5 2.5 0 0 1 10 4.5 2.5 2.5 0 0 1 12.5 2 z m 0 1 A 1.5 1.5 0 0 0 11 4.5 1.5 1.5 0 0 0 12.5 6 1.5 1.5 0 0 0 14 4.5 1.5 1.5 0 0 0 12.5 3 z M 2.5 7 A 1.5 1.5 0 0 1 3.964844 8.183594 L 2.996 7.631 A 1.0001 1.0001 0 0 0 2.421875 7.494141 a 1.0001 1.0001 0 0 0 -0.417969 1.875 L 2.971 9.922 A 1.5 1.5 0 0 1 2.5 10 1.5 1.5 0 0 1 1 8.5 1.5 1.5 0 0 1 2.5 7 z m 6.970703 4 A 1.5 1.5 0 0 1 9.5 11 1.5 1.5 0 0 1 11 12.5 1.5 1.5 0 0 1 9.5 14 1.5 1.5 0 0 1 8.03516 12.816406 l 0.969 0.553 A 1.00076 1.00076 0 1 0 9.996094 11.630859 L 9.03 11.08 A 1.5 1.5 0 0 1 9.470703 11 z" style="fill:#2e3440;fill-opacity:1;stroke-width:1"/>
</svg>
